packages/ui-icons/svg/Line/feedback.svg

<svg viewBox="0 0 1920 1920" version="1.1" xmlns="http://www.w3.org/2000/svg">
    <path d="M84,0 L84,1423.14253 L521.875,1423.14253 L521.875,1920 L1143.11016,1423.14253 L1835.5,1423.14253 L1835.5,0 L84,0 Z M193.46875,109.464082 L1726.03125,109.464082 L1726.03125,1313.56899 L1104.79609,1313.56899 L631.34375,1692.31471 L631.34375,1313.56899 L193.46875,1313.56899 L193.46875,109.464082 Z" stroke="none" stroke-width="1" fill-rule="evenodd"/>
</svg>

<svg viewBox="0 0 1920 1920" version="1.1" xmlns="http://www.w3.org/2000/svg">
    <path d="M84 0v1423.143h437.875V1920l621.235-496.857h692.39V0H84zm109.469 109.464H1726.03V1313.57h-621.235l-473.452 378.746v-378.746H193.469V109.464z" stroke="none" stroke-width="1" fill-rule="evenodd"/>
</svg>
